svg/fluentui-system-icons/ic_fluent_battery_6_24_regular.svg

<svg width="24" height="24" viewBox="0 0 24 24" fill="none" xmlns="http://www.w3.org/2000/svg">
<path d="M17 6C18.6569 6 20 7.34315 20 9V10H21.0003C21.1824 10 21.3532 10.0487 21.5003 10.1338C21.7992 10.3067 22.0003 10.6299 22.0003 11V13C22.0003 13.3701 21.7992 13.6933 21.5003 13.8662C21.3532 13.9513 21.1824 14 21.0003 14H20V15C20 16.6569 18.6569 18 17 18H4.99963C3.34278 18 1.99963 16.6569 1.99963 15V9C1.99963 7.34315 3.34278 6 4.99963 6H17ZM16.9981 7.5H4.99963C4.21993 7.5 3.57918 8.09489 3.5065 8.85554L3.49963 9V15C3.49963 15.7797 4.09452 16.4204 4.85517 16.4931L4.99963 16.5H16.9981C17.7778 16.5 18.4186 15.9051 18.4912 15.1445L18.4981 15V9C18.4981 8.2203 17.9032 7.57955 17.1426 7.50687L16.9981 7.5ZM5.99963 9H12C12.5128 9 12.9355 9.38604 12.9932 9.88338L13 10V14C13 14.5128 12.6139 14.9355 12.1166 14.9933L12 15H5.99963C5.4868 15 5.06413 14.614 5.00636 14.1166L4.99963 14V10C4.99963 9.48717 5.38568 9.06449 5.88301 9.00673L5.99963 9H12H5.99963Z" fill="#212121"/>
</svg>

<svg xmlns="http://www.w3.org/2000/svg" width="24" height="24"><path d="M17 6a3 3 0 0 1 3 3v1h1a1 1 0 0 1 1 1v2a1 1 0 0 1-1 1h-1v1a3 3 0 0 1-3 3H5a3 3 0 0 1-3-3V9a3 3 0 0 1 3-3h12Zm-.002 1.5H5a1.5 1.5 0 0 0-1.494 1.356L3.5 9v6a1.5 1.5 0 0 0 1.355 1.493L5 16.5h11.998a1.5 1.5 0 0 0 1.493-1.355l.007-.145V9a1.5 1.5 0 0 0-1.355-1.493l-.145-.007ZM6 9h6a1 1 0 0 1 .993.883L13 10v4a1 1 0 0 1-.883.993L12 15H6a1 1 0 0 1-.994-.883L5 14v-4a1 1 0 0 1 .883-.993L6 9h6-6Z"/></svg>
